X: 1
T:Brady's
R:reel
D:Fisherstreet
Z:id:hn-reel-627
M:C|
K:D
fded B2FB|AF~F2 DFAd|fded BAFA|Beed e2de|
fded B2FB|AF~F2 DFAd|fa~a2 bfaf|dBAG FDD2:|
|:fa~a2 bfaf|dB~B2 AF~F2|~A3B defd|e2df edBd|
fa~a2 bfaf|dB~B2 AF~F2|~A3B defe|dBAG FDD2:|
